packages/swarm-icons/src/icons/line/Archive.svg

<svg xmlns="http://www.w3.org/2000/svg" width="24" height="24" viewBox="0 0 24 24">
  <path fill="#757575" d="M20.5,9.5 L20.5,20 C20.5,20.2761424 20.2761424,20.5 20,20.5 L4,20.5 C3.72385763,20.5 3.5,20.2761424 3.5,20 L3.5,9.5 L3,9.5 C2.72385763,9.5 2.5,9.27614237 2.5,9 L2.5,4 C2.5,3.72385763 2.72385763,3.5 3,3.5 L21,3.5 C21.2761424,3.5 21.5,3.72385763 21.5,4 L21.5,9 C21.5,9.27614237 21.2761424,9.5 21,9.5 L20.5,9.5 Z M19.5,9.5 L4.5,9.5 L4.5,19.5 L19.5,19.5 L19.5,9.5 Z M20,8.5 L20.5,8.5 L20.5,4.5 L3.5,4.5 L3.5,8.5 L4,8.5 L20,8.5 Z M8,13 L8,12 L16,12 L16,13 L8,13 Z"/>
</svg>

<svg xmlns="http://www.w3.org/2000/svg" width="24" height="24"><path fill="#757575" d="M20.5 9.5V20a.5.5 0 01-.5.5H4a.5.5 0 01-.5-.5V9.5H3a.5.5 0 01-.5-.5V4a.5.5 0 01.5-.5h18a.5.5 0 01.5.5v5a.5.5 0 01-.5.5h-.5zm-1 0h-15v10h15v-10zm.5-1h.5v-4h-17v4H20zM8 13v-1h8v1H8z"/></svg>
